X: 2007
T: LADY MADELINA SINCLAIR
R: Strathspey.
%R: strathspey
B: James Kerr "Merry Melodies" v.2 p.4 #7
Z: 2016 John Chambers <jc:trillian.mit.edu>
M: C
L: 1/8
K: A
uf |\
ve>vAuc>uA (c/d/e) f2 | e<Ac>A B3 uf |\
e>Ac>A (c/d/e) a2 | A<A c>B A3 uf |\
ve>vAuc>uA (c/d/e) f2 | e<Ac>A B3 uf |\
e>Ac>A (c/d/e) a2 | A<A c>B A3 |]
ue |\
va>vguf>ue (f<a) ug>ub | a/g/f/e/ va>uc B3 g |\
a>gf>e (f<a) ug>ub | (3agf (3efg a2 (3(efg) |\
(3afa (3geg (3fdf (3ece | vd>vb uc>ua B2 (B>d) |\
(3cde f2 (3cde a2 | A<A c>B A3 |]
